source/img/icons/cart-light.svg

<svg width="24" height="24" viewBox="0 0 24 24" fill="none" xmlns="http://www.w3.org/2000/svg">
<path d="M16 18C16.5304 18 17.0391 18.2107 17.4142 18.5858C17.7893 18.9609 18 19.4696 18 20C18 20.5304 17.7893 21.0391 17.4142 21.4142C17.0391 21.7893 16.5304 22 16 22C15.4696 22 14.9609 21.7893 14.5858 21.4142C14.2107 21.0391 14 20.5304 14 20C14 19.4696 14.2107 18.9609 14.5858 18.5858C14.9609 18.2107 15.4696 18 16 18ZM16 19C15.7348 19 15.4804 19.1054 15.2929 19.2929C15.1054 19.4804 15 19.7348 15 20C15 20.2652 15.1054 20.5196 15.2929 20.7071C15.4804 20.8946 15.7348 21 16 21C16.2652 21 16.5196 20.8946 16.7071 20.7071C16.8946 20.5196 17 20.2652 17 20C17 19.7348 16.8946 19.4804 16.7071 19.2929C16.5196 19.1054 16.2652 19 16 19ZM7 18C7.53043 18 8.03914 18.2107 8.41421 18.5858C8.78929 18.9609 9 19.4696 9 20C9 20.5304 8.78929 21.0391 8.41421 21.4142C8.03914 21.7893 7.53043 22 7 22C6.46957 22 5.96086 21.7893 5.58579 21.4142C5.21071 21.0391 5 20.5304 5 20C5 19.4696 5.21071 18.9609 5.58579 18.5858C5.96086 18.2107 6.46957 18 7 18ZM7 19C6.73478 19 6.48043 19.1054 6.29289 19.2929C6.10536 19.4804 6 19.7348 6 20C6 20.2652 6.10536 20.5196 6.29289 20.7071C6.48043 20.8946 6.73478 21 7 21C7.26522 21 7.51957 20.8946 7.70711 20.7071C7.89464 20.5196 8 20.2652 8 20C8 19.7348 7.89464 19.4804 7.70711 19.2929C7.51957 19.1054 7.26522 19 7 19ZM18 6H4.273L6.82 12H15C15.1555 12.0002 15.3089 11.964 15.4478 11.8942C15.5868 11.8244 15.7074 11.7229 15.8 11.598L18.8 7.598H18.801C18.9119 7.44936 18.9793 7.2728 18.9956 7.08806C19.012 6.90333 18.9766 6.71769 18.8935 6.55189C18.8104 6.3861 18.6828 6.24668 18.525 6.14922C18.3672 6.05176 18.1855 6.00009 18 6ZM15 13H6.866L6.1 14.56L6 15C6 15.2652 6.10536 15.5196 6.29289 15.7071C6.48043 15.8946 6.73478 16 7 16H18V17H7C6.65177 17.0002 6.30952 16.9094 6.00713 16.7367C5.70474 16.564 5.45269 16.3153 5.27591 16.0153C5.09912 15.7153 5.00374 15.3743 4.9992 15.0261C4.99465 14.6779 5.08111 14.3345 5.25 14.03L5.97 12.556L2.338 4H1V3H3L3.849 5H18C18.3779 5.00004 18.748 5.10712 19.0675 5.30885C19.3871 5.51059 19.6429 5.79871 19.8054 6.13985C19.9679 6.481 20.0305 6.8612 19.9858 7.23642C19.9411 7.61165 19.7911 7.96654 19.553 8.26L16.639 12.146C16.4548 12.4098 16.2095 12.6252 15.9242 12.7739C15.6388 12.9226 15.3218 13.0001 15 13Z" fill="white"/>
</svg>

<svg width="24" height="24" viewBox="0 0 24 24" fill="none" xmlns="http://www.w3.org/2000/svg">
  <path d="M16 18a2 2 0 110 4 2 2 0 010-4zm0 1a1 1 0 100 2 1 1 0 000-2zm-9-1a2 2 0 110 4 2 2 0 010-4zm0 1a1 1 0 100 2 1 1 0 000-2zM18 6H4.27l2.55 6H15a1 1 0 00.8-.4l3-4A1 1 0 0018 6zm-3 7H6.87l-.77 1.56L6 15a1 1 0 001 1h11v1H7a2 2 0 01-1.75-2.97l.72-1.47L2.34 4H1V3h2l.85 2H18a2 2 0 011.55 3.26l-2.91 3.89A2 2 0 0115 13z" fill="#fff"/>
</svg>
